packages/foundations/assets/icons/functional/images/technology/bug_24.svg

<svg width="24" height="24" viewBox="0 0 24 24" fill="none" xmlns="http://www.w3.org/2000/svg">
<g clip-path="url(#clip0_187_567)">
<path fill-rule="evenodd" clip-rule="evenodd" d="M17.099 2.01776C17.64 2.12876 17.99 2.65676 17.88 3.19776C17.644 4.36276 17.053 5.41176 16.215 6.24276C17.09 7.10776 17.696 8.23976 17.91 9.50476H20.001C20.266 9.50476 20.52 9.60976 20.708 9.79776L21.708 10.7978C22.099 11.1888 22.099 11.8208 21.708 12.2118C21.513 12.4068 21.257 12.5048 21.001 12.5048C20.745 12.5048 20.489 12.4068 20.294 12.2118L19.587 11.5048H18.001V13.5048H20.001C20.266 13.5048 20.52 13.6098 20.708 13.7978L21.708 14.7978C22.099 15.1888 22.099 15.8208 21.708 16.2118C21.513 16.4068 21.257 16.5048 21.001 16.5048C20.745 16.5048 20.489 16.4068 20.294 16.2118L19.587 15.5048H18.001L17.999 15.9998C17.999 16.5198 17.926 17.0218 17.801 17.5038H19.999C20.264 17.5038 20.518 17.6088 20.706 17.7968L21.706 18.7968C22.097 19.1878 22.097 19.8198 21.706 20.2108C21.511 20.4058 21.255 20.5038 20.999 20.5038C20.743 20.5038 20.487 20.4058 20.292 20.2108L19.585 19.5038H16.999C16.956 19.5038 16.92 19.4848 16.878 19.4798C15.789 21.0028 14.01 22.0008 11.999 22.0008C9.98803 22.0008 8.20903 21.0028 7.12003 19.4798C7.07803 19.4858 7.04103 19.5048 6.99803 19.5048H4.41303L3.70603 20.2118C3.51103 20.4068 3.25503 20.5048 2.99903 20.5048C2.74303 20.5048 2.48703 20.4068 2.29203 20.2118C1.90103 19.8208 1.90103 19.1888 2.29203 18.7978L3.29203 17.7978C3.47903 17.6098 3.73403 17.5048 3.99903 17.5048H6.19703C6.07203 17.0228 5.99903 16.5208 5.99903 16.0008V15.5048H4.41303L3.70603 16.2118C3.51103 16.4068 3.25503 16.5048 2.99903 16.5048C2.74303 16.5048 2.48703 16.4068 2.29203 16.2118C1.90103 15.8208 1.90103 15.1888 2.29203 14.7978L3.29203 13.7978C3.47903 13.6098 3.73403 13.5048 3.99903 13.5048H5.99903V11.5048H4.41303L3.70603 12.2118C3.51103 12.4068 3.25503 12.5048 2.99903 12.5048C2.74303 12.5048 2.48703 12.4068 2.29203 12.2118C1.90103 11.8208 1.90103 11.1888 2.29203 10.7978L3.29203 9.79776C3.47903 9.60976 3.73403 9.50476 3.99903 9.50476H6.09003C6.30403 8.23976 6.91003 7.10776 7.78503 6.24276C6.94703 5.41176 6.35703 4.36276 6.12003 3.19776C6.01003 2.65676 6.36003 2.12776 6.90103 2.01776C7.44503 1.91376 7.97003 2.25776 8.08003 2.79876C8.26203 3.69676 8.75703 4.49376 9.46503 5.07676C10.236 4.71476 11.093 4.50676 12 4.50676C12.907 4.50676 13.764 4.71476 14.535 5.07676C15.243 4.49276 15.738 3.69576 15.92 2.79876C16.03 2.25776 16.557 1.91476 17.099 2.01776ZM16.001 11.5048H8.00103V16.0008C8.00103 18.2068 9.79503 20.0008 12.001 20.0008C14.207 20.0008 16.001 18.2068 16.001 16.0008V11.5048ZM13.001 15.9988C13.553 15.9988 14.001 16.4458 14.001 16.9988C14.001 17.5518 13.553 17.9988 13.001 17.9988H11.001C10.449 17.9988 10.001 17.5518 10.001 16.9988C10.001 16.4458 10.449 15.9988 11.001 15.9988H13.001ZM14.001 12.9988C14.553 12.9988 15.001 13.4458 15.001 13.9988C15.001 14.5518 14.553 14.9988 14.001 14.9988H10.001C9.44903 14.9988 9.00103 14.5518 9.00103 13.9988C9.00103 13.4458 9.44903 12.9988 10.001 12.9988H14.001ZM12.001 6.50776C10.144 6.50776 8.59203 7.78576 8.14403 9.50476H15.858C15.41 7.78576 13.858 6.50776 12.001 6.50776Z" fill="#1A1C1F"/>
</g>
<defs>
<clipPath id="clip0_187_567">
<rect width="24" height="24" fill="white"/>
</clipPath>
</defs>
</svg>

<svg xmlns="http://www.w3.org/2000/svg" width="24" height="24" fill="none"><g clip-path="url(#a)"><path fill="#1A1C1F" fill-rule="evenodd" d="M17.099 2.018c.541.11.891.639.781 1.18a5.96 5.96 0 0 1-1.665 3.045 6 6 0 0 1 1.695 3.262h2.091a1 1 0 0 1 .707.293l1 1a.999.999 0 1 1-1.414 1.414l-.707-.707h-1.586v2h2a1 1 0 0 1 .707.293l1 1a.999.999 0 1 1-1.414 1.414l-.707-.707h-1.586l-.002.495c0 .52-.073 1.022-.198 1.504h2.198a1 1 0 0 1 .707.293l1 1a.999.999 0 1 1-1.414 1.414l-.707-.707h-2.586c-.043 0-.079-.02-.121-.024A5.99 5.99 0 0 1 11.999 22a5.99 5.99 0 0 1-4.879-2.52c-.042.006-.079.025-.122.025H4.413l-.707.707a.997.997 0 0 1-1.414 0 1 1 0 0 1 0-1.414l1-1a1 1 0 0 1 .707-.293h2.198A6 6 0 0 1 5.999 16v-.496H4.413l-.707.707a.997.997 0 0 1-1.414 0 1 1 0 0 1 0-1.414l1-1a1 1 0 0 1 .707-.293h2v-2H4.413l-.707.707a.997.997 0 0 1-1.414 0 1 1 0 0 1 0-1.414l1-1a1 1 0 0 1 .707-.293H6.09a6 6 0 0 1 1.695-3.262A5.97 5.97 0 0 1 6.12 3.198c-.11-.541.24-1.07.781-1.18a1.003 1.003 0 0 1 1.179.78 3.98 3.98 0 0 0 1.385 2.279A5.95 5.95 0 0 1 12 4.507c.907 0 1.764.208 2.535.57a4 4 0 0 0 1.385-2.278c.11-.541.637-.884 1.179-.781m-1.098 9.487h-8V16c0 2.206 1.794 4 4 4s4-1.794 4-4zm-3 4.494a1 1 0 1 1 0 2h-2a1 1 0 1 1 0-2zm1-3a1 1 0 1 1 0 2h-4a1 1 0 1 1 0-2zm-2-6.491c-1.857 0-3.409 1.278-3.857 2.997h7.714c-.448-1.72-2-2.997-3.857-2.997" clip-rule="evenodd"/></g><defs><clipPath id="a"><path fill="#fff" d="M0 0h24v24H0z"/></clipPath></defs></svg>
